X: 24796
T: Maggie In The Woods
R: polka
M: 2/4
K: Gmajor
|:B/A/|GD G>A|Bd e/f/g/e/|dB AG/A/|BA AB/A/|
GD G>A|Bd e/f/g/e/|dB AF|G2 G:|
|:f|g>f ed|gd BG/B/|dB AG/A/|BA Ad|
gf ed|gd BG/B/|dB AF|G2 G:|

